src/assets/icons/userIcon.svg

<svg width="22" height="24" viewBox="0 0 22 24" fill="none" xmlns="http://www.w3.org/2000/svg">
<path d="M1 19C1 19.9693 1.11783 20.618 1.34327 21.0791C1.5502 21.5023 1.88679 21.8473 2.51687 22.1337C3.17962 22.4349 4.14546 22.6599 5.5602 22.8028C6.96536 22.9448 8.74527 23 11 23C13.2547 23 15.0346 22.9448 16.4398 22.8028C17.8545 22.6599 18.8204 22.4349 19.4831 22.1337C20.1132 21.8473 20.4498 21.5023 20.6567 21.0791C20.8822 20.618 21 19.9693 21 19C21 18.0307 20.8822 17.382 20.6567 16.9209C20.4498 16.4977 20.1132 16.1527 19.4831 15.8663C18.8204 15.5651 17.8545 15.3401 16.4398 15.1972C15.0346 15.0552 13.2547 15 11 15C8.74527 15 6.96536 15.0552 5.5602 15.1972C4.14546 15.3401 3.17962 15.5651 2.51687 15.8663C1.88679 16.1527 1.5502 16.4977 1.34327 16.9209C1.11783 17.382 1 18.0307 1 19Z" stroke="#212135" stroke-width="2" stroke-linecap="round" stroke-linejoin="round"/>
<circle r="5" transform="matrix(-1 0 0 1 11 6)" stroke="#212135" stroke-width="2"/>
</svg>

<svg width="22" height="24" fill="none" xmlns="http://www.w3.org/2000/svg"><path d="M1 19c0 .97.118 1.618.343 2.08.207.422.544.767 1.174 1.054.663.3 1.628.526 3.043.669C6.965 22.945 8.745 23 11 23c2.255 0 4.035-.055 5.44-.197 1.415-.143 2.38-.368 3.043-.67.63-.286.967-.63 1.174-1.054.225-.461.343-1.11.343-2.079 0-.97-.118-1.618-.343-2.08-.207-.422-.544-.767-1.174-1.054-.663-.3-1.628-.526-3.043-.669C15.035 15.055 13.255 15 11 15c-2.255 0-4.035.055-5.44.197-1.415.143-2.38.368-3.043.67-.63.286-.967.63-1.174 1.054C1.118 17.382 1 18.03 1 19Z" stroke="#212135" stroke-width="2" stroke-linecap="round" stroke-linejoin="round"/><circle r="5" transform="matrix(-1 0 0 1 11 6)" stroke="#212135" stroke-width="2"/></svg>
